!!!!SEGMENT: pl-wn--sd-xvi-qu-273--147_gomolka-mikolaj--chwalcie-pana-godno-dac-czesc-panu-temu.krn
!!!cenid: 15xx:352
!!!COM: Gomółka, Mikołaj
!!!COM-rismid: pe30013343
!!!CDT: ~1535->1591/04/30
!!!CNT: Polish
!!!GTL: Melodiae na psalterz polski
!!!OTL: CXLVII. Chwalcie Pana! Godno dać cześć Panu temu,
!!!PDT: 1580
!!!AGN: Sacred
!!!SMS-siglum: PL-Wn
!!!SMS-shelfmark: SD XVI.Qu.273
!!!SMS-shelfwork: 148 G
!!!NIFC-rismid:
!!!ONB-nifc: Melodiae na psalterz polski
**kern	**text	**kern	**text	**kern	**text	**kern	**text
*part4	*part4	*part3	*part3	*part2	*part2	*part1	*part1
*staff4	*staff4	*staff3	*staff3	*staff2	*staff2	*staff1	*staff1
*clefF4	*	*clefC3	*	*clefC3	*	*clefC1	*
*k[b-]	*	*k[b-]	*	*k[b-]	*	*k[b-]	*
*d:	*	*d:	*	*d:	*	*d:	*
*M4/2	*	*M4/2	*	*M4/2	*	*M4/2	*
*met(C|)	*	*met(C|)	*	*met(C|)	*	*met(C|)	*
=-	=-	=-	=-	=-	=-	=-	=-
1D	Chwal-	1d	Chwal-	1f	Chwal-	1a	Chwal-
2A	-ćie	2c/	-ćie	2e	-ćie	2a	-ćie
2AA	pá-	2c/	pá-	2e	pá-	2a	pá-
=3-	=3-	=3-	=3-	=3-	=3-	=3-	=3-
2D/	-ná:	2d	-ná:	2f	-ná:	2a	-ná:
2G	god-	2.d	god-	2g	god-	1b-	god-
2G	.	.	.	2G	.	.	.
.	.	4e	.	.	.	.	.
2.F	-no	2f	-no	2.A	-no	2a	-no
=4-	=4-	=4-	=4-	=4-	=4-	=4-	=4-
.	.	2f	dáć	.	.	2a	dáć
4G	dáć	.	.	4B-	dáć	.	.
2A	cześć	2e	cześć	2c/	cześć	2a	cześć
2.B-	pá-	2.d	pá-	2.B-	pá-	2g/	pá-
.	.	.	.	.	.	1f	-nu
4A	.	4c/	.	4c/	.	.	.
=5-	=5-	=5-	=5-	=5-	=5-	=5-	=5-
4G	-nu	4B-	-nu	2d	-nu	.	.
4F	.	4A	.	.	.	.	.
2G	te-	2B-	te-	4c	te-	2e	te-
.	.	.	.	4B-	.	.	.
2F	-mu/	2A	-mu/	4c	-mu/	2f	-mu/
.	.	.	.	4d	.	.	.
2C	Pieśń	2c/	Pieśń	2e	Pieśń	2g/	Pieśń
=6-	=6-	=6-	=6-	=6-	=6-	=6-	=6-
2F	we-	2c/	we-	2f	we-	2.a	we-
2D/	-ʃo-	2d	-ʃo-	2f	-ʃo-	.	.
.	.	.	.	.	.	4a	-ʃo-
!!LO:PB:g=original
2A	-ła/	2d	-ła/	2e	-ła/	2a	-ła
2A	oӡ-	2c/	oӡ-	2e	oӡ-	2a	oӡ-
=7-	=7-	=7-	=7-	=7-	=7-	=7-	=7-
2D/	-dob-	2.d	-dob-	2d	-dob-	2a	-dob-
2AA	-ny	.	.	2c/	-ny	2a	-ny
.	.	4c/	-ny	.	.	.	.
2.BB-	rym/	2.B-	rym/	2.d	rym	2g/	rym/
.	.	.	.	.	.	2f	.
4AA	.	4c/	.	4c/	.	.	.
=8-	=8-	=8-	=8-	=8-	=8-	=8-	=8-
4GG	ʃłu-	2d	ʃłu-	4B-	ʃłu-	1g	ʃłu-
4FF	.	.	.	4A	.	.	.
2GG	-ʒ̇y	4c	-ʒ̇y	2B-	-ʒ̇y	.	-ʒ̇y
.	.	4B-	.	.	.	.	.
1FF	ie-	4A	ie-	2.c/	ie-	1a	ie-
.	.	4G	.	.	.	.	.
.	.	4A	.	.	.	.	.
.	.	4B-	.	4d	.	.	.
=9-	=9-	=9-	=9-	=9-	=9-	=9-	=9-
!!LO:N:vis=00
0C	-mu.	0c	-mu.	0e	-mu.	0g	-mu.
=-	=-	=-	=-	=-	=-	=-	=-
*-	*-	*-	*-	*-	*-	*-	*-
!!!RDF**kern: l = terminal long
!!!system-decoration: s1,s2,s3,s4
!!!ENC:Anna Matuszewska
!!!END:2020-02-25
!!!URL-scan: https://polona.pl/item/melodiae-na-psalterz-polski,Nzk3MTM4ODQ/347 Scan on Polona
!!!IIIF: https://polona.pl/iiif/item/Nzk3MTM4ODQ/manifest.json
